img/Vector.svg

<svg width="22" height="16" viewBox="0 0 22 16" fill="none" xmlns="http://www.w3.org/2000/svg">
<path d="M21.7004 7.28331L15.1535 0.796818C14.7541 0.401061 14.1063 0.401061 13.7068 0.796818C13.3073 1.19266 13.3073 1.83433 13.7068 2.23017L18.5074 6.98647H1.02294C0.458032 6.98647 0 7.44029 0 7.99999C0 8.55961 0.458032 9.0135 1.02294 9.0135H18.5074L13.707 13.7698C13.3075 14.1656 13.3075 14.8073 13.707 15.2032C13.9067 15.4009 14.1686 15.5 14.4304 15.5C14.6921 15.5 14.9539 15.4009 15.1537 15.2032L21.7004 8.71667C22.0999 8.32083 22.0999 7.67915 21.7004 7.28331Z" fill="white"/>
</svg>

<svg width="22" height="16" fill="none" xmlns="http://www.w3.org/2000/svg"><path d="M21.7 7.283 15.154.797a1.03 1.03 0 0 0-1.447 0c-.4.396-.4 1.037 0 1.433l4.8 4.756H1.023C.458 6.986 0 7.44 0 8s.458 1.014 1.023 1.014h17.484l-4.8 4.756c-.4.396-.4 1.037 0 1.433a1.026 1.026 0 0 0 1.447 0L21.7 8.717c.4-.396.4-1.038 0-1.434Z" fill="#fff"/></svg>
